src/assets-svg/house.svg

<svg width="17" height="17" viewBox="0 0 17 17" fill="none" xmlns="http://www.w3.org/2000/svg">
<path d="M15.5833 16.1143H1.41663C1.12621 16.1143 0.885376 15.8734 0.885376 15.583C0.885376 15.2926 1.12621 15.0518 1.41663 15.0518H15.5833C15.8737 15.0518 16.1145 15.2926 16.1145 15.583C16.1145 15.8734 15.8737 16.1143 15.5833 16.1143Z" fill="#292D32"/>
<path d="M2.62097 15.5834H1.55847L1.59389 7.06216C1.59389 6.46008 1.87014 5.90052 2.34472 5.53218L7.30306 1.67176C8.00431 1.12634 8.98889 1.12634 9.69723 1.67176L14.6556 5.52509C15.1231 5.89343 15.4064 6.46716 15.4064 7.06216V15.5834H14.3439V7.06925C14.3439 6.80009 14.2164 6.53801 14.0039 6.36801L9.04555 2.51468C8.7268 2.26676 8.28056 2.26676 7.95473 2.51468L2.99639 6.3751C2.78389 6.53802 2.65639 6.80009 2.65639 7.06925L2.62097 15.5834Z" fill="#292D32"/>
<path d="M12.0417 16.1149H4.95837C4.66796 16.1149 4.42712 15.8741 4.42712 15.5837V8.85449C4.42712 7.97616 5.14254 7.26074 6.02087 7.26074H10.9792C11.8575 7.26074 12.573 7.97616 12.573 8.85449V15.5837C12.573 15.8741 12.3321 16.1149 12.0417 16.1149ZM5.48962 15.0524H11.5105V8.85449C11.5105 8.56408 11.2696 8.32324 10.9792 8.32324H6.02087C5.73046 8.32324 5.48962 8.56408 5.48962 8.85449V15.0524Z" fill="#292D32"/>
<path d="M7.08337 13.1045C6.79296 13.1045 6.55212 12.8637 6.55212 12.5732V11.5107C6.55212 11.2203 6.79296 10.9795 7.08337 10.9795C7.37379 10.9795 7.61462 11.2203 7.61462 11.5107V12.5732C7.61462 12.8637 7.37379 13.1045 7.08337 13.1045Z" fill="#292D32"/>
<path d="M9.5625 5.84375H7.4375C7.14708 5.84375 6.90625 5.60292 6.90625 5.3125C6.90625 5.02208 7.14708 4.78125 7.4375 4.78125H9.5625C9.85292 4.78125 10.0938 5.02208 10.0938 5.3125C10.0938 5.60292 9.85292 5.84375 9.5625 5.84375Z" fill="#292D32"/>
</svg>

<svg width="17" height="17" fill="none" xmlns="http://www.w3.org/2000/svg"><path d="M15.583 16.114H1.417a.535.535 0 0 1-.532-.531c0-.29.241-.531.532-.531h14.166c.29 0 .531.24.531.531 0 .29-.24.531-.53.531Z" fill="#292D32"/><path d="M2.621 15.583H1.558l.036-8.52c0-.603.276-1.162.75-1.53l4.96-3.861a1.956 1.956 0 0 1 2.393 0l4.959 3.853c.467.368.75.942.75 1.537v8.521h-1.062V7.07a.907.907 0 0 0-.34-.701L9.046 2.515a.893.893 0 0 0-1.091 0l-4.959 3.86a.883.883 0 0 0-.34.694l-.035 8.514Z" fill="#292D32"/><path d="M12.042 16.115H4.958a.535.535 0 0 1-.53-.531v-6.73c0-.878.715-1.593 1.593-1.593h4.958c.879 0 1.594.715 1.594 1.593v6.73c0 .29-.24.53-.531.53ZM5.49 15.052h6.02V8.854c0-.29-.24-.53-.53-.53H6.02c-.29 0-.53.24-.53.53v6.198Z" fill="#292D32"/><path d="M7.083 13.104a.535.535 0 0 1-.53-.53V11.51c0-.29.24-.531.53-.531.29 0 .532.24.532.53v1.063c0 .29-.241.531-.532.531ZM9.563 5.844H7.437a.535.535 0 0 1-.53-.532c0-.29.24-.53.53-.53h2.125c.29 0 .532.24.532.53 0 .29-.241.532-.531.532Z" fill="#292D32"/></svg>
